icons/source/generic/newcomers.svg

<?xml version="1.0" encoding="utf-8"?>
<!-- Generated by IcoMoon.io -->
<!DOCTYPE svg PUBLIC "-//W3C//DTD SVG 1.1//EN" "http://www.w3.org/Graphics/SVG/1.1/DTD/svg11.dtd">
<svg version="1.1" xmlns="http://www.w3.org/2000/svg" xmlns:xlink="http://www.w3.org/1999/xlink" width="32" height="32" viewBox="0 0 32 32">
<path d="M7.524 29.059h16.952v-19.375h-2.663v-3.875c0-1.065-0.872-1.938-1.938-1.938h-7.75c-1.065 0-1.938 0.872-1.938 1.938v3.875h-2.663v19.375zM12.125 5.813c0.001-0.001 0.002-0.003 0.004-0.004h7.743c0.001 0.001 0.003 0.002 0.004 0.004l-0.001 3.871h-7.75v-3.871zM28.594 9.684c1.598 0 2.906 1.307 2.906 2.906v13.563c0 1.598-1.307 2.906-2.906 2.906h-2.362v-19.375h2.362zM5.768 9.684v19.374h-2.362c-1.598 0-2.906-1.307-2.906-2.906v-13.562c0-1.598 1.307-2.906 2.906-2.906h2.362z"></path>
</svg>

<svg xmlns="http://www.w3.org/2000/svg" width="32" height="32" viewBox="0 0 32 32"><path d="M7.524 29.059h16.952V9.684h-2.663V5.809a1.944 1.944 0 0 0-1.938-1.938h-7.75a1.944 1.944 0 0 0-1.938 1.938v3.875H7.524v19.375zm4.601-23.246l.004-.004h7.743l.004.004-.001 3.871h-7.75V5.813zm16.469 3.871A2.914 2.914 0 0 1 31.5 12.59v13.563a2.914 2.914 0 0 1-2.906 2.906h-2.362V9.684h2.362zm-22.826 0v19.374H3.406A2.914 2.914 0 0 1 .5 26.152V12.59a2.914 2.914 0 0 1 2.906-2.906h2.362z"/></svg>
